svg/align-center.svg

<svg xmlns="http://www.w3.org/2000/svg" viewBox="0 0 64 48" enable-background="new 0 0 64 48"><style type="text/css">.st0{fill:#333333;}</style><title>align-center</title><desc>Created with Sketch.</desc><path class="st0" d="M61 0h-58c-1.7 0-3 1.3-3 3s1.3 3 3 3h58c1.7 0 3-1.3 3-3s-1.3-3-3-3zM57 28h-50c-1.7 0-3 1.3-3 3s1.3 3 3 3h50c1.7 0 3-1.3 3-3s-1.3-3-3-3zM50 20c1.7 0 3-1.3 3-3s-1.3-3-3-3h-36c-1.7 0-3 1.3-3 3s1.3 3 3 3h36zM42 42h-20c-1.7 0-3 1.3-3 3s1.3 3 3 3h20c1.7 0 3-1.3 3-3s-1.3-3-3-3z"/></svg>

<svg xmlns="http://www.w3.org/2000/svg" viewBox="0 0 64 48"><path d="M61 0H3C1.3 0 0 1.3 0 3s1.3 3 3 3h58c1.7 0 3-1.3 3-3s-1.3-3-3-3zm-4 28H7c-1.7 0-3 1.3-3 3s1.3 3 3 3h50c1.7 0 3-1.3 3-3s-1.3-3-3-3zm-7-8c1.7 0 3-1.3 3-3s-1.3-3-3-3H14c-1.7 0-3 1.3-3 3s1.3 3 3 3h36zm-8 22H22c-1.7 0-3 1.3-3 3s1.3 3 3 3h20c1.7 0 3-1.3 3-3s-1.3-3-3-3z" fill="#333"/></svg>
